dist/images/icons/arrow-right.svg

<svg xmlns="http://www.w3.org/2000/svg" width="20" height="120" viewBox="0 0 20 120"><path fill="none" d="M4.76 7h10.48v6H4.76"/><path fill="none" stroke="#383838" stroke-width="1.5" stroke-linecap="round" stroke-linejoin="round" stroke-miterlimit="10" d="M7.75 5.51l4.5 4.497-4.5 4.483"/><path fill="none" d="M4.76 26.958h10.48v6H4.76"/><path fill="none" stroke="#C2C2C2" stroke-width="1.5" stroke-linecap="round" stroke-linejoin="round" stroke-miterlimit="10" d="M7.75 25.468l4.5 4.498-4.5 4.482"/><path fill="none" d="M4.76 47.044h10.48v6H4.76"/><path fill="none" stroke="#FFF" stroke-width="1.5" stroke-linecap="round" stroke-linejoin="round" stroke-miterlimit="10" d="M7.75 45.553l4.5 4.5-4.5 4.48"/><path fill="none" d="M4.76 66.96h10.48v6H4.76"/><path fill="none" stroke="#393" stroke-width="1.5" stroke-linecap="round" stroke-linejoin="round" stroke-miterlimit="10" d="M7.75 65.47l4.5 4.498-4.5 4.482"/><path fill="none" d="M4.76 86.96h10.48v5.998H4.76"/><path fill="none" stroke="#5290D2" stroke-width="1.5" stroke-linecap="round" stroke-linejoin="round" stroke-miterlimit="10" d="M7.75 85.468l4.5 4.5-4.5 4.48"/><path fill="none" d="M4.76 107h10.48v6H4.76"/><path fill="none" stroke="#FF5252" stroke-width="1.5" stroke-linecap="round" stroke-linejoin="round" stroke-miterlimit="10" d="M7.75 105.51l4.5 4.5-4.5 4.48"/></svg>

<svg xmlns="http://www.w3.org/2000/svg" width="20" height="120" viewBox="0 0 20 120"><path fill="none" d="M4.759 7H15.24v5.999H4.759"/><path fill="none" stroke="#383838" stroke-width="1.5" stroke-linecap="round" stroke-linejoin="round" stroke-miterlimit="10" d="M7.75 5.509l4.499 4.498L7.75 14.49"/><path fill="none" d="M4.759 26.958H15.24v6H4.759"/><path fill="none" stroke="#C2C2C2" stroke-width="1.5" stroke-linecap="round" stroke-linejoin="round" stroke-miterlimit="10" d="M7.75 25.468l4.499 4.498-4.499 4.482"/><path fill="none" d="M4.759 47.044H15.24v5.999H4.759"/><path fill="none" stroke="#FFF" stroke-width="1.5" stroke-linecap="round" stroke-linejoin="round" stroke-miterlimit="10" d="M7.75 45.553l4.499 4.499-4.499 4.482"/><path fill="none" d="M4.759 66.96H15.24v5.999H4.759"/><path fill="none" stroke="#393" stroke-width="1.5" stroke-linecap="round" stroke-linejoin="round" stroke-miterlimit="10" d="M7.75 65.469l4.499 4.499L7.75 74.45"/><path fill="none" d="M4.759 86.959H15.24v5.999H4.759"/><path fill="none" stroke="#5290D2" stroke-width="1.5" stroke-linecap="round" stroke-linejoin="round" stroke-miterlimit="10" d="M7.75 85.468l4.499 4.499-4.499 4.482"/><path fill="none" d="M4.759 107.001H15.24V113H4.759"/><path fill="none" stroke="#FF5252" stroke-width="1.5" stroke-linecap="round" stroke-linejoin="round" stroke-miterlimit="10" d="M7.75 105.51l4.499 4.499-4.499 4.482"/></svg>
